svgs/light/microphone-lines.svg

<svg xmlns="http://www.w3.org/2000/svg" viewBox="0 0 384 512"><!-- Font Awesome Pro 6.0.0-alpha2 by @fontawesome - https://fontawesome.com License - https://fontawesome.com/license (Commercial License) --><path d="M192 352C245 352 288 309 288 256V96C288 43 245 0 192 0S96 43 96 96V256C96 309 139 352 192 352ZM128 98.922C128 65.529 152.303 35.613 185.531 32.32C223.664 28.541 256 58.615 256 96H208C199.201 96 192 103.199 192 112C192 120.799 199.201 128 208 128H256V160H208C199.201 160 192 167.199 192 176C192 184.799 199.201 192 208 192H256V224H208C199.201 224 192 231.199 192 240C192 248.799 199.201 256 208 256H256C256 293.383 223.664 323.457 185.531 319.678C152.303 316.385 128 286.469 128 253.076V98.922ZM336 192C327.201 192 320 199.199 320 208V256C320 329.5 257.75 388.625 183.25 383.75C115.25 379.125 64 319.625 64 251.5V208C64 199.199 56.801 192 48 192C39.201 192 32 199.199 32 208V250.375C32 333.75 93.625 406.5 176 414.75V480H112C103.201 480 96 487.199 96 496C96 504.799 103.201 512 112 512H272C280.801 512 288 504.799 288 496C288 487.199 280.801 480 272 480H208V415C288.75 406.875 352 338.75 352 256V208C352 199.199 344.801 192 336 192Z"/></svg>

<svg xmlns="http://www.w3.org/2000/svg" viewBox="0 0 384 512"><!--! Font Awesome Pro 6.3.0 by @fontawesome - https://fontawesome.com License - https://fontawesome.com/license (Commercial License) Copyright 2023 Fonticons, Inc. --><path d="M192 352c53 0 96-43 96-96V96c0-53-43-96-96-96s-96 43-96 96v160C96 309 139 352 192 352zM128 98.92C128 65.53 152.3 35.61 185.5 32.32C223.7 28.54 256 58.62 256 96l-48 0c-8.799 0-16 7.199-16 16c0 8.799 7.201 16 16 16L256 128v32h-48C199.2 160 192 167.2 192 176C192 184.8 199.2 192 208 192H256v32h-48C199.2 224 192 231.2 192 240C192 248.8 199.2 256 208 256H256c0 37.38-32.34 67.46-70.47 63.68C152.3 316.4 128 286.5 128 253.1V98.92zM336 192C327.2 192 320 199.2 320 208V256c0 73.5-62.25 132.6-136.8 127.8C115.3 379.1 64 319.6 64 251.5V208C64 199.2 56.8 192 48 192C39.2 192 32 199.2 32 208v42.38c0 83.38 61.63 156.1 144 164.4V480h-64C103.2 480 96 487.2 96 496C96 504.8 103.2 512 112 512h160c8.801 0 16-7.201 16-16c0-8.801-7.199-16-16-16h-64v-65C288.8 406.9 352 338.8 352 256V208C352 199.2 344.8 192 336 192z"/></svg>
